X:201
T:Polonäs
T:ur Kumlins notsamling (nr 201)
B:Kumlins notsamling, nr 201
B:http://www.smus.se/earkiv/fmk/browselarge.php?lang=sw&katalogid=Ma+4&bildnr=00039
O:Närke
R:Slängpolska
Z:Nils Liberg
M:3/4
L:1/16
K:G
B2AG B2cd e2fg | A2>G2 F2GA D2>c2 | B2>d2 E2>c2 D2B2 | A2GF G4 G,4 ::
g2>a2 g2fe d2g2 | f2a2 edcB A2g2 | f2a2 B2g2 A2f2 | e2dc d4 D4 |
d2f2 c2BA G2B2 | c2e2 AGFE D2c2 | B2d2 E2c2 D2B2 | A2GF G4 G,4 :|

